flaticon/transportation/lifesaver.svg

<svg xmlns="http://www.w3.org/2000/svg" width="32" height="32" viewBox="0 0 24 24">
    <path d="M 22.507812 9.625 C 21.601562 5.484375 18.410156 2.238281 14.285156 1.257812 C 13.945312 0.515625 13.199219 0 12.328125 0 L 11.671875 0 C 10.855469 0 10.140625 0.457031 9.777344 1.128906 C 5.269531 1.933594 1.726562 5.4375 0.875 9.941406 C 0.34375 10.332031 0 10.960938 0 11.671875 L 0 12.328125 C 0 13.039062 0.34375 13.667969 0.875 14.058594 C 1.722656 18.550781 5.273438 22.066406 9.777344 22.867188 C 10.140625 23.542969 10.851562 24 11.671875 24 L 12.328125 24 C 13.195312 24 13.945312 23.484375 14.285156 22.742188 C 18.414062 21.761719 21.601562 18.511719 22.507812 14.375 C 23.371094 14.097656 24 13.285156 24 12.328125 L 24 11.671875 C 24 10.714844 23.371094 9.902344 22.507812 9.625 Z M 21.433594 9.523438 L 18.855469 9.523438 C 18.59375 9.523438 18.339844 9.566406 18.101562 9.65625 C 17.457031 7.894531 16.117188 6.484375 14.390625 5.75 C 14.445312 5.558594 14.476562 5.351562 14.476562 5.140625 L 14.476562 2.363281 C 17.90625 3.339844 20.554688 6.0625 21.433594 9.523438 Z M 12.328125 16.707031 L 11.671875 16.707031 C 10.996094 16.707031 10.394531 17.019531 10 17.507812 C 8.339844 16.988281 6.984375 15.722656 6.347656 14.105469 C 6.917969 13.71875 7.292969 13.066406 7.292969 12.328125 L 7.292969 11.671875 C 7.292969 10.933594 6.917969 10.28125 6.347656 9.894531 C 6.984375 8.277344 8.339844 7.011719 10 6.492188 C 10.394531 6.980469 10.996094 7.292969 11.671875 7.292969 L 12.328125 7.292969 C 12.933594 7.292969 13.476562 7.042969 13.867188 6.640625 C 15.480469 7.28125 16.710938 8.605469 17.230469 10.265625 C 16.894531 10.652344 16.707031 11.148438 16.707031 11.671875 L 16.707031 12.328125 C 16.707031 12.863281 16.90625 13.355469 17.230469 13.730469 C 16.710938 15.386719 15.480469 16.714844 13.867188 17.359375 C 13.476562 16.957031 12.933594 16.707031 12.328125 16.707031 Z M 1.019531 12.328125 L 1.019531 11.671875 C 1.019531 11.046875 1.527344 10.542969 2.148438 10.542969 L 5.140625 10.542969 C 5.765625 10.542969 6.269531 11.046875 6.269531 11.671875 L 6.269531 12.328125 C 6.269531 12.949219 5.765625 13.457031 5.140625 13.457031 L 2.148438 13.457031 C 1.527344 13.457031 1.019531 12.949219 1.019531 12.328125 Z M 10.542969 2.148438 C 10.542969 1.527344 11.046875 1.019531 11.671875 1.019531 L 12.328125 1.019531 C 12.953125 1.019531 13.457031 1.527344 13.457031 2.148438 L 13.457031 5.140625 C 13.457031 5.765625 12.953125 6.269531 12.328125 6.269531 L 11.671875 6.269531 C 11.046875 6.269531 10.542969 5.765625 10.542969 5.140625 Z M 9.523438 2.222656 L 9.523438 5.140625 C 9.523438 5.285156 9.535156 5.425781 9.5625 5.558594 C 7.664062 6.199219 6.121094 7.671875 5.390625 9.535156 C 5.308594 9.527344 5.226562 9.523438 5.140625 9.523438 L 2.148438 9.523438 C 2.101562 9.523438 2.058594 9.523438 2.011719 9.527344 C 2.9375 5.875 5.839844 3.046875 9.523438 2.222656 Z M 2.011719 14.472656 C 2.058594 14.476562 2.101562 14.476562 2.148438 14.476562 L 5.140625 14.476562 C 5.226562 14.476562 5.308594 14.472656 5.390625 14.464844 C 6.121094 16.332031 7.664062 17.800781 9.5625 18.441406 C 9.535156 18.574219 9.523438 18.714844 9.523438 18.855469 L 9.523438 21.773438 C 5.84375 20.953125 2.9375 18.117188 2.011719 14.472656 Z M 13.457031 21.851562 C 13.457031 22.472656 12.953125 22.980469 12.328125 22.980469 L 11.671875 22.980469 C 11.046875 22.980469 10.542969 22.472656 10.542969 21.851562 L 10.542969 18.855469 C 10.542969 18.234375 11.046875 17.730469 11.671875 17.730469 L 12.328125 17.730469 C 12.953125 17.730469 13.457031 18.234375 13.457031 18.855469 Z M 14.476562 21.636719 L 14.476562 18.855469 C 14.476562 18.644531 14.445312 18.441406 14.390625 18.25 C 16.121094 17.511719 17.460938 16.101562 18.101562 14.339844 C 18.335938 14.429688 18.589844 14.476562 18.855469 14.476562 L 21.433594 14.476562 C 20.558594 17.933594 17.910156 20.660156 14.476562 21.636719 Z M 22.980469 12.328125 C 22.980469 12.949219 22.472656 13.457031 21.851562 13.457031 L 18.855469 13.457031 C 18.234375 13.457031 17.730469 12.949219 17.730469 12.328125 L 17.730469 11.671875 C 17.730469 11.320312 17.886719 11 18.160156 10.78125 C 18.363281 10.625 18.601562 10.542969 18.855469 10.542969 L 21.851562 10.542969 C 22.472656 10.542969 22.980469 11.046875 22.980469 11.671875 Z M 22.980469 12.328125"/>
</svg>

<svg xmlns="http://www.w3.org/2000/svg" width="32" height="32" viewBox="0 0 24 24">
    <path d="M22.508 9.625a11.016 11.016 0 0 0-8.223-8.367A2.15 2.15 0 0 0 12.328 0h-.656c-.817 0-1.531.457-1.895 1.129A11.031 11.031 0 0 0 .875 9.94 2.141 2.141 0 0 0 0 11.671v.657c0 .711.344 1.34.875 1.73a11.037 11.037 0 0 0 8.902 8.81A2.146 2.146 0 0 0 11.672 24h.656c.867 0 1.617-.516 1.957-1.258a11.016 11.016 0 0 0 8.223-8.367A2.154 2.154 0 0 0 24 12.328v-.656c0-.957-.629-1.77-1.492-2.047zm-1.074-.102h-2.579c-.261 0-.515.043-.753.133A6.765 6.765 0 0 0 14.39 5.75a2.23 2.23 0 0 0 .086-.61V2.364a9.998 9.998 0 0 1 6.957 7.16zm-9.106 7.184h-.656c-.676 0-1.277.313-1.672.8a5.815 5.815 0 0 1-3.652-3.402c.57-.386.945-1.039.945-1.777v-.656c0-.738-.375-1.39-.945-1.777A5.815 5.815 0 0 1 10 6.492c.395.488.996.801 1.672.801h.656c.606 0 1.149-.25 1.54-.652a5.732 5.732 0 0 1 3.362 3.625 2.138 2.138 0 0 0-.523 1.406v.656c0 .535.2 1.027.523 1.402a5.756 5.756 0 0 1-3.363 3.63 2.135 2.135 0 0 0-1.539-.653zM1.02 12.328v-.656a1.13 1.13 0 0 1 1.128-1.129h2.993c.625 0 1.129.504 1.129 1.129v.656a1.13 1.13 0 0 1-1.13 1.129H2.149a1.132 1.132 0 0 1-1.128-1.129zm9.523-10.18a1.13 1.13 0 0 1 1.129-1.128h.656a1.13 1.13 0 0 1 1.129 1.128v2.993c0 .625-.504 1.129-1.129 1.129h-.656a1.127 1.127 0 0 1-1.129-1.13zm-1.02.075V5.14c0 .144.012.285.04.418A6.865 6.865 0 0 0 5.39 9.535a2.616 2.616 0 0 0-.25-.012H2.148c-.046 0-.09 0-.136.004a10.005 10.005 0 0 1 7.511-7.304zm-7.511 12.25c.047.004.09.004.136.004h2.993c.086 0 .168-.004.25-.012a6.855 6.855 0 0 0 4.171 3.976c-.027.133-.039.274-.039.414v2.918a10.012 10.012 0 0 1-7.511-7.3zm11.445 7.379a1.13 1.13 0 0 1-1.129 1.128h-.656a1.13 1.13 0 0 1-1.129-1.128v-2.997c0-.62.504-1.125 1.129-1.125h.656c.625 0 1.129.504 1.129 1.125zm1.02-.215v-2.782c0-.21-.032-.414-.086-.605a6.76 6.76 0 0 0 3.71-3.91 2.1 2.1 0 0 0 .754.137h2.579a9.991 9.991 0 0 1-6.957 7.16zm8.503-9.309c0 .621-.507 1.129-1.128 1.129h-2.997a1.129 1.129 0 0 1-1.125-1.129v-.656c0-.352.157-.672.43-.89.203-.157.442-.239.695-.239h2.997a1.13 1.13 0 0 1 1.128 1.129zm0 0"/>
</svg>
